X: 14061
T: Mr. KUBBS' REEL
C: Bob McQuillen 27 May'08
B: Bob's Note Book 14 #61
%R: reel
%D:2008
Z: 2020 John Chambers <jc:trillian.mit.edu>
M: C
L: 1/8
K: G
GE \
| D2GA BGEG | DEGB AGEG | c2eg edBd | egag e2GE |
| DEGA BGEG | BdBG AGED | GBde dBGB | AGED G2  :|
|: Bd \
| e2eg edBd | edeg e2ge | d2de gedB | GABG A2BA |
| G2GE DEGA | Bdeg a2ge | dBGB AGEG | DEGA G2  :|
%%begintext align
%% When I came out
%% to the Northwest Folklife Festival in Seattle this year,
%% Marcy Kubbs introduced me to her dad, Jim Kubbs.
%% He pretty much glued himself to the Roadhouse Stage,
%% and enjoyed listening to the music so much that I thought
%% he might like a tune of his own. Marcy told me she played
%% it for him on her fiddle. Thanks loads, Marcy!
%%endtext

%%sep 1 1 500

%%sep 1 1 500

